contributed-vectors/moto_app_box.svg

<?xml version="1.0" encoding="UTF-8" standalone="no"?>
<svg
   xmlns:dc="http://purl.org/dc/elements/1.1/"
   xmlns:cc="http://creativecommons.org/ns#"
   xmlns:rdf="http://www.w3.org/1999/02/22-rdf-syntax-ns#"
   xmlns:svg="http://www.w3.org/2000/svg"
   xmlns="http://www.w3.org/2000/svg"
   xmlns:sodipodi="http://sodipodi.sourceforge.net/DTD/sodipodi-0.dtd"
   xmlns:inkscape="http://www.inkscape.org/namespaces/inkscape"
   viewBox="0 0 192 192"
   version="1.1"
   id="svg16"
   sodipodi:docname="moto_app_box.svg"
   inkscape:version="0.92.4 (5da689c313, 2019-01-14)">
  <metadata
     id="metadata20">
    <rdf:RDF>
      <cc:Work
         rdf:about="">
        <dc:format>image/svg+xml</dc:format>
        <dc:type
           rdf:resource="http://purl.org/dc/dcmitype/StillImage" />
        <dc:title></dc:title>
      </cc:Work>
    </rdf:RDF>
  </metadata>
  <sodipodi:namedview
     pagecolor="#ffffff"
     bordercolor="#666666"
     borderopacity="1"
     objecttolerance="10"
     gridtolerance="10"
     guidetolerance="10"
     inkscape:pageopacity="0"
     inkscape:pageshadow="2"
     inkscape:window-width="1920"
     inkscape:window-height="1017"
     id="namedview18"
     showgrid="true"
     inkscape:zoom="3.4766083"
     inkscape:cx="77.907787"
     inkscape:cy="105.18043"
     inkscape:window-x="-8"
     inkscape:window-y="-8"
     inkscape:window-maximized="1"
     inkscape:current-layer="svg16">
    <inkscape:grid
       type="xygrid"
       id="grid827"
       spacingx="4"
       spacingy="4" />
  </sodipodi:namedview>
  <defs
     id="defs4">
    <style
       id="style2">.a{fill:none;stroke:#b1b5bd;stroke-linecap:round;stroke-linejoin:round;isolation:isolate;opacity:0.63;}</style>
    <style
       id="style2-5">.a{fill:none;stroke:#b1b5bd;stroke-linecap:round;stroke-linejoin:round;isolation:isolate;opacity:0.63;}</style>
    <style
       id="style2-9">.a{fill:none;stroke:#b1b5bd;stroke-linecap:round;stroke-linejoin:round;isolation:isolate;opacity:0.63;}</style>
  </defs>
  <path
     inkscape:connector-curvature="0"
     d="m 90.558,10.679 c 3.0497,-1.7636 6.8086,-1.753 9.8482,0.02752 l 65.736,38.507 c 3.0086,1.7626 4.8581,4.9933 4.8581,8.4864 v 76.201 c 0,3.4924 -1.8495,6.7233 -4.8581,8.4857 l -65.736,38.507 c -3.0396,1.7811 -6.7985,1.7919 -9.8482,0.0275 l -66.652,-38.543 C 20.8703,140.62262 19,137.37692 19,133.86392 v -76.127 c 0,-3.5128 1.8703,-6.7586 4.906,-8.514 z"
     style="clip-rule:evenodd;fill:#ececec;fill-rule:evenodd;stroke-width:0.98179001"
     id="path2" />
  <path
     inkscape:connector-curvature="0"
     d="M 170.05,53.664 94.51,95.309 v 86.806 c 2.0208,0.19776 4.087,-0.15924 5.8992,-1.221 l 65.734,-38.504 c 3.0086,-1.7624 4.8572,-4.9932 4.8572,-8.4855 v -76.209 c 0,-1.4262 -0.38041,-2.775 -0.95,-4.0316 z"
     style="clip-rule:evenodd;fill:#d8d8d8;fill-rule:evenodd;stroke-width:0.98179001"
     id="path4" />
  <path
     inkscape:connector-curvature="0"
     d="m 95.486,9.3633 c -1.7009,-0.00476 -3.4029,0.43461 -4.9277,1.3164 l -66.652,38.543 c -1.9132,1.1064 -3.3609,2.805 -4.1719,4.7891 l 0.04687,0.09766 74.729,41.199 75.54099,-41.645 0.041,-0.05469 c -0.82711,-1.8073 -2.17959,-3.3597 -3.94919,-4.3965 l -65.73599,-38.506 C 98.88727,9.816 97.18807,9.36727 95.48717,9.36257 Z"
     style="opacity:1;fill:#ffffff"
     id="path6" />
  <path
     style="opacity:1;vector-effect:none;fill:#96dfd3;fill-opacity:1;fill-rule:evenodd;stroke:none;stroke-width:8;stroke-linejoin:round;stroke-miterlimit:4;stroke-dasharray:none;stroke-opacity:1;paint-order:stroke fill markers"
     d="M 95.486328 9.3632812 C 93.785441 9.3585163 92.083444 9.7978877 90.558594 10.679688 L 76 19.097656 L 76 96 L 52 96 L 94.5 144 L 136 96 L 112 96 L 112 17.498047 L 100.40625 10.707031 C 98.88645 9.8167714 97.187216 9.3680462 95.486328 9.3632812 z "
     id="rect855" />
  <path
     style="clip-rule:evenodd;fill:#73ada4;fill-rule:evenodd;stroke-width:0.98179001"
     d="M 112 85.666016 L 94.509766 95.308594 L 94.509766 143.98828 L 136 96 L 112 96 L 112 85.666016 z "
     id="path4-7" />
  <path
     style="opacity:1;vector-effect:none;fill:#e0f4e0;fill-opacity:1;fill-rule:evenodd;stroke:none;stroke-width:8;stroke-linejoin:round;stroke-miterlimit:4;stroke-dasharray:none;stroke-opacity:1;paint-order:stroke fill markers"
     d="M 94.958984 9.3964844 C 93.435679 9.4746413 91.925534 9.8891871 90.558594 10.679688 L 76 19.097656 L 76 85.103516 L 94.509766 95.308594 L 94.509766 9.6445312 L 94.958984 9.3964844 z "
     id="rect855-9" />
</svg>

<svg xmlns="http://www.w3.org/2000/svg" id="svg16" version="1.1" viewBox="0 0 192 192"><defs id="defs4"><style id="style2">.a{fill:none;stroke:#b1b5bd;stroke-linecap:round;stroke-linejoin:round;isolation:isolate;opacity:.63}</style></defs><path id="path2" d="M90.558 10.679a9.786 9.786 0 0 1 9.848.028l65.736 38.507A9.834 9.834 0 0 1 171 57.7v76.2a9.834 9.834 0 0 1-4.858 8.487l-65.736 38.507a9.783 9.783 0 0 1-9.848.027l-66.652-38.543A9.834 9.834 0 0 1 19 133.864V57.737a9.833 9.833 0 0 1 4.906-8.514z" style="clip-rule:evenodd;fill:#ececec;fill-rule:evenodd;stroke-width:.98179001"/><path id="path4" d="M170.05 53.664 94.51 95.309v86.806c2.02.198 4.087-.16 5.9-1.221l65.733-38.504a9.833 9.833 0 0 0 4.857-8.485v-76.21c0-1.426-.38-2.774-.95-4.031z" style="clip-rule:evenodd;fill:#d8d8d8;fill-rule:evenodd;stroke-width:.98179001"/><path id="path6" d="M95.486 9.363a9.783 9.783 0 0 0-4.928 1.317L23.906 49.223a9.816 9.816 0 0 0-4.172 4.789l.047.097 74.73 41.2 75.54-41.646.041-.054a9.801 9.801 0 0 0-3.949-4.397l-65.736-38.506a9.78 9.78 0 0 0-4.92-1.343Z" style="opacity:1;fill:#fff"/><path id="rect855" d="M95.486 9.363a9.783 9.783 0 0 0-4.927 1.317L76 19.098V96H52l42.5 48L136 96h-24V17.498l-11.594-6.791a9.782 9.782 0 0 0-4.92-1.344z" style="opacity:1;vector-effect:none;fill:#96dfd3;fill-opacity:1;fill-rule:evenodd;stroke:none;stroke-width:8;stroke-linejoin:round;stroke-miterlimit:4;stroke-dasharray:none;stroke-opacity:1;paint-order:stroke fill markers"/><path id="path4-7" d="m112 85.666-17.49 9.643v48.68L136 96h-24V85.666z" style="clip-rule:evenodd;fill:#73ada4;fill-rule:evenodd;stroke-width:.98179001"/><path id="rect855-9" d="M94.959 9.396a9.76 9.76 0 0 0-4.4 1.284L76 19.098v66.006l18.51 10.205V9.645l.449-.249z" style="opacity:1;vector-effect:none;fill:#e0f4e0;fill-opacity:1;fill-rule:evenodd;stroke:none;stroke-width:8;stroke-linejoin:round;stroke-miterlimit:4;stroke-dasharray:none;stroke-opacity:1;paint-order:stroke fill markers"/></svg>
